; generated by PrusaSlicer 2.2.0+win64 on 2020-11-15 at 20:51:06 UTC

; 

; external perimeters extrusion width = 0.42mm
; perimeters extrusion width = 0.42mm
; infill extrusion width = 0.42mm
; solid infill extrusion width = 0.42mm
; top infill extrusion width = 0.42mm
; first layer extrusion width = 0.42mm

M107
M104 S220 ; set temperature
T-1
M140 S60
G28;
G29 S1; enable mesh
G10 P0 S220 R170
G10 P1 S220 R170
G10 P2 S220 R170
G10 P3 S220 R170
T0
G90
G1 X150 Y100 Z10 ; move to middle
M109 S220 ; set temperature and wait for it to be reached
G21 ; set units to millimeters
G90 ; use absolute coordinates
M82 ; use absolute distances for extrusion
G92 E0
; Filament gcode
G1 Z0.200 F12000.000
G1 E-4.00000 F24000.00000
G92 E0
G1 Z0.700 F12000.000
G1 X118.616 Y106.657
G1 Z0.200
G1 E4.00000
G1 F1200.000
G1 X119.776 Y105.113 E4.05936
G1 X135.574 Y87.274 E4.79154
G1 X137.042 Y85.781 E4.85585
G1 X138.580 Y84.448 E4.91840
G1 X140.236 Y83.228 E4.98159
G1 X142.249 Y81.993 E5.05419
G1 X144.164 Y81.034 E5.11997
G1 X146.196 Y80.221 E5.18724
G1 X148.178 Y79.611 E5.25095
G1 X150.337 Y79.137 E5.31888
G1 X152.572 Y78.843 E5.38814
G1 X154.708 Y78.745 E5.45383
G1 X157.151 Y78.848 E5.52896
G1 X159.585 Y79.182 E5.60447
G1 X161.955 Y79.743 E5.67930
G1 X163.746 Y80.442 E5.73838
G1 X165.419 Y81.414 E5.79783
G1 X166.957 Y82.667 E5.85879
G1 X168.263 Y84.133 E5.91913
G1 X169.327 Y85.798 E5.97982
G1 X170.151 Y87.717 E6.04400
G1 X170.766 Y90.144 E6.12094
G1 X171.159 Y92.933 E6.20749
G1 X171.252 Y95.567 E6.28846
G1 X171.079 Y98.194 E6.36937
G1 X170.650 Y100.742 E6.44876
G1 X169.997 Y103.158 E6.52568
G1 X169.065 Y105.615 E6.60642
G1 X168.013 Y107.743 E6.67935
G1 X166.706 Y109.861 E6.75581
G1 X165.296 Y111.735 E6.82787
G1 X163.736 Y113.460 E6.89936
G1 X162.501 Y114.628 E6.95159
G1 X144.950 Y130.169 E7.67191
G1 X143.809 Y131.071 E7.71658
G1 X142.409 Y131.928 E7.76704
G1 X140.968 Y132.581 E7.81563
G1 X139.403 Y133.064 E7.86596
G1 X137.747 Y133.349 E7.91760
G1 X136.080 Y133.414 E7.96887
G1 X134.451 Y133.265 E8.01913
G1 X132.813 Y132.898 E8.07073
G1 X131.306 Y132.352 E8.11997
G1 X130.311 Y131.867 E8.15397
G1 X129.270 Y131.240 E8.19132
G1 X127.488 Y129.813 E8.26148
G1 X120.068 Y122.386 E8.58404
G1 X119.151 Y121.283 E8.62813
G1 X118.293 Y119.978 E8.67610
G1 X117.609 Y118.605 E8.72324
G1 X117.098 Y117.174 E8.76995
G1 X116.764 Y115.730 E8.81547
G1 X116.601 Y114.273 E8.86052
G1 X116.607 Y112.781 E8.90637
G1 X116.780 Y111.347 E8.95075
G1 X117.133 Y109.869 E8.99744
G1 X117.663 Y108.437 E9.04436
G1 X118.588 Y106.710 E9.10456
G1 X118.920 Y106.889 F12000.000
G1 F1200.000
G1 X120.064 Y105.357 E9.16332
G1 X135.848 Y87.533 E9.89488
G1 X137.295 Y86.061 E9.95828
G1 X138.810 Y84.747 E10.01993
G1 X140.447 Y83.540 E10.08242
G1 X142.433 Y82.322 E10.15402
G1 X144.319 Y81.378 E10.21880
G1 X146.322 Y80.576 E10.28511
G1 X148.275 Y79.976 E10.34790
G1 X150.402 Y79.508 E10.41480
G1 X152.607 Y79.218 E10.48312
G1 X154.707 Y79.123 E10.54774
G1 X157.111 Y79.223 E10.62165
G1 X159.502 Y79.550 E10.69582
G1 X161.833 Y80.101 E10.76940
G1 X163.569 Y80.775 E10.82662
G1 X165.199 Y81.720 E10.88454
G1 X166.701 Y82.944 E10.94406
G1 X167.972 Y84.373 E11.00282
G1 X169.007 Y85.999 E11.06206
G1 X169.802 Y87.861 E11.12428
G1 X170.401 Y90.241 E11.19968
G1 X170.784 Y92.975 E11.28451
G1 X170.875 Y95.587 E11.36480
G1 X170.703 Y98.160 E11.44404
G1 X170.278 Y100.680 E11.52256
G1 X169.607 Y103.138 E11.60086
G1 X168.706 Y105.495 E11.67840
G1 X167.678 Y107.569 E11.74952
G1 X166.390 Y109.656 E11.82489
G1 X165.005 Y111.496 E11.89564
G1 X163.461 Y113.201 E11.96633
G1 X162.250 Y114.347 E12.01756
G1 X144.694 Y129.892 E12.73808
G1 X143.608 Y130.751 E12.78062
G1 X142.269 Y131.576 E12.82895
G1 X140.808 Y132.239 E12.87825
G1 X139.318 Y132.697 E12.92614
G1 X137.700 Y132.975 E12.97661
G1 X136.083 Y133.037 E13.02632
G1 X134.497 Y132.891 E13.07527
G1 X132.901 Y132.531 E13.12552
G1 X131.428 Y131.994 E13.17371
G1 X129.463 Y130.916 E13.24258
G1 X127.738 Y129.531 E13.31054
G1 X120.349 Y122.134 E13.63179
G1 X119.462 Y121.069 E13.67438
G1 X118.628 Y119.804 E13.72095
G1 X117.960 Y118.466 E13.76689
G1 X117.461 Y117.071 E13.81241
G1 X117.137 Y115.672 E13.85656
G1 X116.977 Y114.246 E13.90066
G1 X116.984 Y112.794 E13.94526
G1 X117.155 Y111.392 E13.98866
G1 X117.503 Y109.949 E14.03428
G1 X118.023 Y108.555 E14.07997
G1 X118.892 Y106.942 E14.13629
G1 X119.224 Y107.122 F12000.000
G1 F1200.000
G1 X119.276 Y107.024 E14.13968
G1 X120.352 Y105.601 E14.19451
G1 X136.128 Y87.786 E14.92569
G1 X137.553 Y86.335 E14.98819
G1 X139.041 Y85.045 E15.04869
G1 X140.653 Y83.856 E15.11025
G1 X142.611 Y82.655 E15.18082
G1 X144.474 Y81.722 E15.24486
G1 X146.449 Y80.931 E15.31021
G1 X148.373 Y80.340 E15.37207
G1 X150.467 Y79.880 E15.43795
G1 X152.641 Y79.594 E15.50532
G1 X154.707 Y79.500 E15.56887
G1 X157.079 Y79.599 E15.64181
G1 X159.428 Y79.920 E15.71466
G1 X161.719 Y80.460 E15.78699
G1 X163.404 Y81.114 E15.84254
G1 X164.986 Y82.031 E15.89872
G1 X166.445 Y83.220 E15.95655
G1 X167.680 Y84.612 E16.01372
G1 X168.687 Y86.200 E16.07150
G1 X169.450 Y87.998 E16.13151
G1 X170.035 Y90.338 E16.20563
G1 X170.410 Y93.017 E16.28875
G1 X170.497 Y95.598 E16.36809
G1 X170.328 Y98.125 E16.44594
G1 X169.908 Y100.607 E16.52327
G1 X169.246 Y103.028 E16.60040
G1 X168.347 Y105.373 E16.67757
G1 X167.347 Y107.387 E16.74667
G1 X166.073 Y109.451 E16.82117
G1 X164.708 Y111.263 E16.89089
G1 X163.187 Y112.942 E16.96052
G1 X144.450 Y129.604 E17.73096
G1 X143.400 Y130.436 E17.77213
G1 X142.096 Y131.240 E17.81920
G1 X140.682 Y131.883 E17.86692
G1 X139.231 Y132.330 E17.91359
G1 X137.650 Y132.601 E17.96286
G1 X136.078 Y132.659 E18.01121
G1 X134.535 Y132.515 E18.05883
G1 X132.983 Y132.162 E18.10775
G1 X131.544 Y131.633 E18.15485
G1 X129.650 Y130.587 E18.22133
G1 X127.989 Y129.249 E18.28685
G1 X120.694 Y121.950 E18.60396
G1 X119.791 Y120.881 E18.64695
G1 X118.958 Y119.622 E18.69333
G1 X118.308 Y118.320 E18.73807
G1 X117.821 Y116.961 E18.78240
G1 X117.507 Y115.598 E18.82540
G1 X117.353 Y114.212 E18.86825
G1 X117.363 Y112.783 E18.91214
G1 X117.538 Y111.387 E18.95538
G1 X117.879 Y110.010 E18.99896
G1 X118.382 Y108.675 E19.04281
G1 X119.195 Y107.174 E19.09525
G1 F9600.000
G1 X119.276 Y107.024 E18.69033
G1 X120.138 Y105.884 E15.29525
G1 E15.09525 F24000.00000
G92 E0
G1 Z0.700 F12000.000
G1 X145.757 Y105.524
G1 Z0.200
G1 E4.00000
G1 F1200.000
G1 X144.426 Y104.199 E4.05770
G1 X144.722 Y103.966 E4.06928
G1 X144.941 Y104.035 E4.07633
G1 X145.112 Y104.138 E4.08246
G1 X145.320 Y104.302 E4.09059
G1 X145.559 Y104.535 E4.10087
G1 X145.744 Y104.758 E4.10976
G1 X145.862 Y104.942 E4.11648
G1 X145.947 Y105.141 E4.12312
G1 X145.964 Y105.226 E4.12580
G1 X145.945 Y105.274 E4.12738
G1 X145.795 Y105.477 E4.13514
G1 X145.770 Y106.069 F12000.000
G1 F1200.000
G1 X143.884 Y104.192 E4.21692
G1 X144.370 Y103.751 E4.23708
G1 X144.606 Y103.604 E4.24563
G1 X144.731 Y103.583 E4.24951
G1 X144.937 Y103.624 E4.25596
G1 X145.112 Y103.698 E4.26183
G1 X145.326 Y103.827 E4.26949
G1 X145.569 Y104.018 E4.27897
G1 X145.836 Y104.279 E4.29047
G1 X146.049 Y104.534 E4.30067
G1 X146.197 Y104.765 E4.30909
G1 X146.309 Y105.029 E4.31792
G1 X146.339 Y105.178 E4.32259
G1 X146.323 Y105.343 E4.32768
G1 X146.199 Y105.578 E4.33582
G1 X145.811 Y106.025 E4.35402
G1 X145.864 Y106.521 F12000.000
G1 F1200.000
G1 X145.803 Y106.555 E4.35618
G1 X145.734 Y106.555 E4.35827
G1 X145.653 Y106.508 E4.36115
G1 X145.435 Y106.267 E4.37116
G1 X143.370 Y104.212 E4.46067
G1 X143.438 Y104.103 E4.46463
G1 X143.810 Y103.733 E4.48076
G1 X144.140 Y103.453 E4.49404
G1 X144.470 Y103.250 E4.50595
G1 X144.624 Y103.210 E4.51086
G1 X144.761 Y103.205 E4.51506
G1 X145.048 Y103.262 E4.52405
G1 X145.284 Y103.361 E4.53192
G1 X145.541 Y103.516 E4.54113
G1 X145.818 Y103.734 E4.55196
G1 X146.114 Y104.023 E4.56468
G1 X146.354 Y104.311 E4.57619
G1 X146.532 Y104.588 E4.58632
G1 X146.672 Y104.918 E4.59733
G1 X146.715 Y105.138 E4.60420
G1 X146.718 Y105.262 E4.60804
G1 X146.689 Y105.442 E4.61364
G1 X146.622 Y105.615 E4.61932
G1 X146.506 Y105.798 E4.62598
G1 X146.278 Y106.079 E4.63711
G1 X145.905 Y106.477 E4.65387
G1 X145.800 Y106.492 F12000.000
G1 X145.754 Y105.224
G1 F1200.000
G1 X145.527 Y104.917 E4.65659
G1 X145.353 Y104.726 E4.66046
G1 X144.961 Y104.357 E4.66852
G1 X144.829 Y104.254 E4.67061
G1 X144.732 Y104.189 E4.67169
G1 F9600.000
G1 X144.829 Y104.254 E4.39272
G1 E0.67169 F24000.00000
G92 E0
G1 Z0.700 F12000.000
G1 X148.390 Y104.646
G1 Z0.200
G1 E4.00000
G1 F1200.000
G1 X148.247 Y104.369 E4.00957
G1 X148.192 Y104.158 E4.01628
G1 X148.176 Y103.944 E4.02285
G1 X148.197 Y103.732 E4.02941
G1 X148.256 Y103.521 E4.03614
G1 X148.405 Y103.246 E4.04574
G1 X148.550 Y103.082 E4.05247
G1 X148.716 Y102.949 E4.05900
G1 X148.905 Y102.846 E4.06562
G1 X149.112 Y102.778 E4.07231
G1 X149.389 Y102.747 E4.08088
G1 X149.638 Y102.772 E4.08856
G1 X149.844 Y102.837 E4.09521
G1 X150.033 Y102.934 E4.10175
G1 X150.204 Y103.063 E4.10833
G1 X150.349 Y103.222 E4.11493
G1 X150.465 Y103.407 E4.12164
G1 X150.570 Y103.699 E4.13118
G1 X150.597 Y103.917 E4.13793
G1 X150.585 Y104.136 E4.14466
G1 X150.500 Y104.435 E4.15423
G1 X150.395 Y104.628 E4.16097
G1 X150.261 Y104.794 E4.16753
G1 X150.100 Y104.935 E4.17411
G1 X149.918 Y105.045 E4.18065
G1 X149.713 Y105.124 E4.18740
G1 X149.404 Y105.168 E4.19698
G1 X149.186 Y105.152 E4.20369
G1 X148.975 Y105.097 E4.21039
G1 X148.698 Y104.954 E4.21997
G1 X148.530 Y104.813 E4.22671
G1 X148.428 Y104.692 E4.23158
G1 X148.079 Y104.663 F12000.000
G1 F9600.000
G1 X148.247 Y104.369 E3.35211
G1 X148.192 Y104.158 E2.83413
G1 X148.176 Y103.944 E2.32580
G1 X148.197 Y103.732 E1.81870
G1 X148.256 Y103.521 E1.29896
G1 X148.405 Y103.246 E0.55672
G1 X148.440 Y103.207 E0.43158
G1 E0.23158 F24000.00000
G92 E0
G1 Z0.700 F12000.000
G1 X145.915 Y108.368
G1 Z0.200
G1 E4.00000
G1 F1200.000
G1 X145.720 Y108.363 E4.00599
G1 X145.522 Y108.295 E4.01242
G1 X145.377 Y108.210 E4.01760
G1 X145.170 Y108.036 E4.02589
G1 X144.756 Y107.598 E4.04441
G1 X142.205 Y105.039 E4.15545
G1 X141.788 Y104.684 E4.17228
G1 X141.656 Y104.523 E4.17867
G1 X141.597 Y104.378 E4.18347
G1 X141.581 Y104.238 E4.18780
G1 X141.618 Y104.040 E4.19401
G1 X141.718 Y103.836 E4.20100
G1 X141.845 Y103.668 E4.20746
G1 X142.794 Y102.737 E4.24829
G1 X143.193 Y102.389 E4.26459
G1 X143.543 Y102.139 E4.27779
G1 X143.946 Y101.926 E4.29181
G1 X144.348 Y101.811 E4.30466
G1 X144.701 Y101.783 E4.31552
G1 X144.975 Y101.798 E4.32397
G1 X145.216 Y101.838 E4.33145
G1 X145.571 Y101.939 E4.34280
G1 X145.817 Y102.041 E4.35098
G1 X146.289 Y102.306 E4.36762
G1 X146.789 Y102.696 E4.38711
G1 X147.276 Y103.192 E4.40846
G1 X147.662 Y103.708 E4.42826
G1 X147.928 Y104.215 E4.44587
G1 X148.084 Y104.712 E4.46188
G1 X148.137 Y105.194 E4.47677
G1 X148.114 Y105.562 E4.48811
G1 X148.002 Y106.009 E4.50225
G1 X147.802 Y106.412 E4.51609
G1 X147.575 Y106.741 E4.52836
G1 X147.261 Y107.107 E4.54317
G1 X146.620 Y107.740 E4.57084
G1 X146.215 Y108.209 E4.58989
G1 X146.095 Y108.300 E4.59452
G1 X145.971 Y108.347 E4.59859
G1 X145.843 Y108.549 F12000.000
G1 F9600.000
G1 X145.720 Y108.363 E4.00069
G1 X145.522 Y108.295 E3.50408
G1 X145.377 Y108.210 E3.10358
G1 X145.170 Y108.036 E2.46261
G1 X144.756 Y107.598 E1.03142
G1 X144.687 Y107.529 E0.79859
G1 E0.59859 F24000.00000
G92 E0
G1 Z0.700 F12000.000
G1 X139.514 Y108.266
G1 Z0.200
G1 E4.00000
G1 F1200.000
G1 X139.366 Y108.400 E4.00615
G1 X139.075 Y108.480 E4.01543
G1 X138.758 Y108.440 E4.02523
G1 X138.480 Y108.295 E4.03486
G1 X138.320 Y108.081 E4.04308
G1 X138.264 Y107.874 E4.04968
G1 X138.258 Y107.707 E4.05478
G1 X138.293 Y107.454 E4.06263
G1 X138.351 Y107.248 E4.06923
G1 X138.531 Y106.863 E4.08229
G1 X138.764 Y106.535 E4.09464
G1 X139.149 Y106.135 E4.11169
G1 X139.560 Y105.830 E4.12743
G1 X139.936 Y105.652 E4.14021
G1 X140.135 Y105.599 E4.14653
G1 X140.525 Y105.575 E4.15854
G1 X140.805 Y105.623 E4.16727
G1 X141.119 Y105.766 E4.17788
G1 X141.274 Y105.880 E4.18378
G1 X141.495 Y106.095 E4.19327
G1 X141.737 Y106.385 E4.20487
G1 X141.845 Y106.550 E4.21093
G1 X141.952 Y106.830 E4.22015
G1 X141.963 Y107.072 E4.22757
G1 X141.890 Y107.416 E4.23838
G1 X142.186 Y107.318 E4.24794
G1 X142.419 Y107.302 E4.25513
G1 X142.722 Y107.370 E4.26468
G1 X143.305 Y107.668 E4.28480
G1 X143.667 Y107.923 E4.29840
G1 X143.941 Y108.227 E4.31097
G1 X144.156 Y108.608 E4.32441
G1 X144.272 Y108.940 E4.33521
G1 X144.338 Y109.381 E4.34892
G1 X144.305 Y109.811 E4.36218
G1 X144.177 Y110.227 E4.37554
G1 X143.962 Y110.605 E4.38891
G1 X143.630 Y110.991 E4.40455
G1 X143.240 Y111.330 E4.42042
G1 X143.025 Y111.471 E4.42832
G1 X142.768 Y111.600 E4.43716
G1 X142.588 Y111.662 E4.44301
G1 X142.341 Y111.704 E4.45073
G1 X142.164 Y111.699 E4.45614
G1 X141.950 Y111.646 E4.46291
G1 X141.736 Y111.531 E4.47040
G1 X141.559 Y111.367 E4.47782
G1 X141.444 Y111.169 E4.48483
G1 X141.407 Y110.961 E4.49135
G1 X141.442 Y110.761 E4.49758
G1 X141.504 Y110.626 E4.50213
G1 X141.594 Y110.495 E4.50702
G1 X141.768 Y110.332 E4.51436
G1 X141.950 Y110.227 E4.52081
G1 X142.103 Y110.177 E4.52576
G1 X142.555 Y110.110 E4.53979
G1 X142.666 Y110.075 E4.54337
G1 X142.777 Y109.991 E4.54765
G1 X142.848 Y109.892 E4.55138
G1 X142.919 Y109.688 E4.55801
G1 X142.928 Y109.535 E4.56272
G1 X142.915 Y109.444 E4.56553
G1 X142.815 Y109.211 E4.57334
G1 X142.663 Y109.052 E4.58011
G1 X142.527 Y108.972 E4.58493
G1 X142.351 Y108.912 E4.59066
G1 X142.145 Y108.885 E4.59703
G1 X141.932 Y108.896 E4.60358
G1 X141.728 Y108.948 E4.61006
G1 X141.606 Y109.001 E4.61413
G1 X141.190 Y109.281 E4.62956
G1 X140.988 Y109.391 E4.63662
G1 X140.737 Y109.430 E4.64444
G1 X140.493 Y109.331 E4.65254
G1 X140.328 Y109.172 E4.65958
G1 X140.206 Y108.970 E4.66684
G1 X140.151 Y108.808 E4.67209
G1 X140.135 Y108.583 E4.67901
G1 X140.222 Y108.327 E4.68732
G1 X140.489 Y107.950 E4.70150
G1 X140.560 Y107.809 E4.70636
G1 X140.591 Y107.665 E4.71088
G1 X140.587 Y107.518 E4.71541
G1 X140.551 Y107.389 E4.71951
G1 X140.493 Y107.295 E4.72291
G1 X140.367 Y107.190 E4.72795
G1 X140.259 Y107.146 E4.73155
G1 X140.147 Y107.134 E4.73500
G1 X140.052 Y107.153 E4.73796
G1 X139.960 Y107.202 E4.74119
G1 X139.863 Y107.294 E4.74527
G1 X139.774 Y107.430 E4.75027
G1 X139.733 Y107.532 E4.75367
G1 X139.588 Y108.136 E4.77272
G1 X139.544 Y108.214 E4.77548
G1 X139.591 Y108.451 F12000.000
G1 X138.046 Y108.797
G1 F1200.000
G1 X138.100 Y108.944 E4.78030
G1 X138.097 Y109.195 E4.78801
G1 X137.977 Y109.449 E4.79665
G1 X137.767 Y109.709 E4.80690
G1 X137.101 Y110.354 E4.83541
G1 X137.050 Y110.451 E4.83876
G1 X137.192 Y110.618 E4.84549
G1 X139.364 Y112.789 E4.93985
G1 X139.836 Y113.231 E4.95973
G1 X140.024 Y113.438 E4.96832
G1 X140.117 Y113.584 E4.97363
G1 X140.199 Y113.791 E4.98048
G1 X140.201 Y114.072 E4.98912
G1 X140.118 Y114.265 E4.99555
G1 X140.026 Y114.387 E5.00027
G1 X139.905 Y114.498 E5.00531
G1 X139.708 Y114.611 E5.01228
G1 X139.560 Y114.652 E5.01700
G1 X139.364 Y114.643 E5.02301
G1 X139.191 Y114.560 E5.02892
G1 X139.077 Y114.465 E5.03349
G1 X138.698 Y114.027 E5.05127
G1 X136.719 Y112.072 E5.13676
G1 X136.345 Y111.648 E5.15412
G1 X136.206 Y111.544 E5.15947
G1 X136.129 Y111.520 E5.16195
G1 X136.034 Y111.520 E5.16487
G1 X135.852 Y111.592 E5.17087
G1 X135.663 Y111.763 E5.17872
G1 X135.255 Y112.277 E5.19889
G1 X135.085 Y112.419 E5.20569
G1 X134.895 Y112.498 E5.21199
G1 X134.631 Y112.489 E5.22012
G1 X134.421 Y112.403 E5.22711
G1 X134.230 Y112.256 E5.23449
G1 X134.068 Y112.012 E5.24351
G1 X134.019 Y111.853 E5.24862
G1 X134.012 Y111.641 E5.25514
G1 X134.067 Y111.464 E5.26082
G1 X134.186 Y111.292 E5.26726
G1 X134.677 Y110.863 E5.28729
G1 X136.955 Y108.563 E5.38676
G1 X137.133 Y108.425 E5.39367
G1 X137.333 Y108.354 E5.40018
G1 X137.510 Y108.360 E5.40565
G1 X137.649 Y108.409 E5.41018
G1 X137.828 Y108.526 E5.41675
G1 X137.944 Y108.644 E5.42182
G1 X138.013 Y108.747 E5.42564
G1 X138.202 Y108.807 F12000.000
G1 F9600.000
G1 X138.100 Y108.944 E4.91364
G1 X138.097 Y109.195 E4.31766
G1 X137.977 Y109.449 E3.64966
G1 X137.767 Y109.709 E2.85742
G1 X137.395 Y110.070 E1.62564
G1 E1.42564 F24000.00000
G92 E0
G1 Z0.700 F12000.000
G1 X134.201 Y113.793
G1 Z0.200
G1 E4.00000
G1 F1200.000
G1 X134.039 Y113.994 E4.00792
G1 X133.842 Y114.117 E4.01505
G1 X133.593 Y114.208 E4.02319
G1 X132.997 Y114.365 E4.04214
